src/assets/images/icons/users-icon.svg

<svg width="23" height="21" viewBox="0 0 23 21" fill="none" xmlns="http://www.w3.org/2000/svg">
<path d="M16.0192 1.52778C16.5626 1.85633 17.0121 2.32061 17.3242 2.87551C17.6362 3.4304 17.8001 4.05702 17.8 4.69444C17.8001 5.33187 17.6362 5.95849 17.3242 6.51338C17.0121 7.06828 16.5626 7.53256 16.0192 7.86111M22 20V19.3667C22 17.0022 22 15.82 21.5422 14.9164C21.1395 14.122 20.497 13.4761 19.7068 13.0713M8.875 8.38889C9.35761 8.38889 9.83549 8.29333 10.2814 8.10767C10.7272 7.922 11.1324 7.64987 11.4736 7.30681C11.8149 6.96375 12.0856 6.55648 12.2703 6.10825C12.4549 5.66002 12.55 5.17961 12.55 4.69444C12.55 4.20928 12.4549 3.72887 12.2703 3.28064C12.0856 2.83241 11.8149 2.42514 11.4736 2.08208C11.1324 1.73902 10.7272 1.46689 10.2814 1.28122C9.83549 1.09556 9.35761 1 8.875 1C7.90033 1 6.96558 1.38924 6.27638 2.08208C5.58719 2.77492 5.2 3.71462 5.2 4.69444C5.2 5.67427 5.58719 6.61397 6.27638 7.30681C6.96558 7.99965 7.90033 8.38889 8.875 8.38889ZM1 19.3667V20H16.75V19.3667C16.75 17.0022 16.75 15.82 16.2922 14.9164C15.8895 14.122 15.247 13.4761 14.4568 13.0713C13.558 12.6111 12.382 12.6111 10.03 12.6111H7.72C5.368 12.6111 4.192 12.6111 3.2932 13.0713C2.50295 13.4761 1.86046 14.122 1.4578 14.9164C1 15.82 1 17.0022 1 19.3667Z" stroke="#CCD6F6" stroke-width="2" stroke-linecap="round" stroke-linejoin="round"/>
</svg>

<svg xmlns="http://www.w3.org/2000/svg" width="23" height="21" fill="none"><path stroke="#CCD6F6" stroke-linecap="round" stroke-linejoin="round" stroke-width="2" d="M16.02 1.528a3.71 3.71 0 0 1 0 6.333M22 20v-.633c0-2.365 0-3.547-.458-4.45a4.212 4.212 0 0 0-1.835-1.846M8.875 8.39a3.659 3.659 0 0 0 2.599-1.082 3.695 3.695 0 0 0 1.076-2.613 3.713 3.713 0 0 0-1.076-2.612A3.674 3.674 0 0 0 8.875 1c-.975 0-1.91.39-2.599 1.082a3.704 3.704 0 0 0 0 5.225 3.665 3.665 0 0 0 2.599 1.082ZM1 19.367V20h15.75v-.633c0-2.365 0-3.547-.458-4.45a4.212 4.212 0 0 0-1.835-1.846c-.899-.46-2.075-.46-4.427-.46H7.72c-2.352 0-3.528 0-4.427.46a4.211 4.211 0 0 0-1.835 1.845C1 15.82 1 17.002 1 19.366Z"/></svg>
